X: 1
T: Johnny
M: 4/4
L: 1/8
R: reel
K: Dmaj
A3A BBAF|DFAF EFDF|ADFA BBAB|1dBAF EFDF:|2dBAF EFDA ||
ddfd edfe|dfed BdAB|ddfd edfe|dBAF EFDA|
ddfd edfe|dfed BdAB|fdef BdAB|dBAF EFD2|]
